; generated by Slic3r 1.1.7 on 2014-11-06 at 18:15:26

; perimeters extrusion width = 0.50mm
; infill extrusion width = 0.87mm
; solid infill extrusion width = 0.85mm
; top infill extrusion width = 0.85mm

G21 ; set units to millimeters
M107
M190 S55 ; wait for bed temperature to be reached
M104 S200 ; set temperature
G28 Z0
M83
M109 S200 ; wait for temperature to be reached
G90 ; use absolute coordinates
M83 ; use relative distances for extrusion
G1 F3600.000 E-2.40000
G1 Z0.360 F15000.000
G1 X84.168 Y84.811 F15000.000
G1 E2.40000 F3600.000
G1 X85.434 Y83.623 E0.19113 F1200.000
G1 X86.197 Y82.947 E0.11226
G1 X87.601 Y81.926 E0.19114
G1 X88.443 Y81.351 E0.11223
G1 X90.871 Y80.050 E0.30335
G1 X92.485 Y79.411 E0.19113
G1 X93.444 Y79.063 E0.11225
G1 X95.125 Y78.631 E0.19114
G1 X96.120 Y78.406 E0.11224
G1 X97.842 Y78.189 E0.19113
G1 X98.857 Y78.090 E0.11225
G1 X101.612 Y78.120 E0.30335
G1 X104.341 Y78.494 E0.30335
G1 X107.002 Y79.208 E0.30335
G1 X108.617 Y79.847 E0.19114
G1 X109.553 Y80.249 E0.11225
G1 X111.074 Y81.086 E0.19114
G1 X111.953 Y81.603 E0.11223
G1 X114.165 Y83.246 E0.30336
G1 X116.153 Y85.153 E0.30333
G1 X117.260 Y86.491 E0.19116
G1 X117.886 Y87.295 E0.11224
G1 X119.338 Y89.637 E0.30333
G1 X120.077 Y91.207 E0.19114
G1 X120.484 Y92.142 E0.11226
G1 X121.307 Y94.771 E0.30333
G1 X121.633 Y96.477 E0.19114
G1 X121.795 Y97.483 E0.11225
G1 X121.938 Y100.234 E0.30334
G1 X121.829 Y101.967 E0.19114
G1 X121.736 Y102.982 E0.11225
G1 X121.191 Y105.683 E0.30334
G1 X120.654 Y107.334 E0.19113
G1 X120.311 Y108.294 E0.11226
G1 X119.572 Y109.865 E0.19114
G1 X119.112 Y110.774 E0.11223
G1 X118.182 Y112.240 E0.19114
G1 X117.611 Y113.085 E0.11225
G1 X115.832 Y115.189 E0.30334
G1 X114.566 Y116.377 E0.19113
G1 X113.803 Y117.053 E0.11225
G1 X112.399 Y118.074 E0.19114
G1 X111.557 Y118.649 E0.11223
G1 X109.129 Y119.950 E0.30336
G1 X106.556 Y120.937 E0.30335
G1 X104.875 Y121.369 E0.19114
G1 X103.880 Y121.594 E0.11224
G1 X102.158 Y121.811 E0.19113
G1 X101.143 Y121.910 E0.11225
G1 X98.388 Y121.880 E0.30335
G1 X95.659 Y121.506 E0.30335
G1 X92.998 Y120.792 E0.30335
G1 X91.384 Y120.153 E0.19113
G1 X90.447 Y119.751 E0.11225
G1 X88.926 Y118.914 E0.19113
G1 X88.047 Y118.397 E0.11223
G1 X85.835 Y116.754 E0.30336
G1 X83.847 Y114.847 E0.30333
G1 X82.740 Y113.509 E0.19116
G1 X82.114 Y112.705 E0.11224
G1 X80.662 Y110.363 E0.30333
G1 X79.923 Y108.793 E0.19114
G1 X79.516 Y107.858 E0.11226
G1 X78.693 Y105.229 E0.30333
G1 X78.367 Y103.523 E0.19113
G1 X78.205 Y102.517 E0.11226
G1 X78.062 Y99.765 E0.30334
G1 X78.171 Y98.033 E0.19113
G1 X78.264 Y97.018 E0.11226
G1 X78.809 Y94.317 E0.30334
G1 X79.346 Y92.666 E0.19113
G1 X79.689 Y91.706 E0.11226
G1 X80.888 Y89.226 E0.30333
G1 X81.818 Y87.760 E0.19114
G1 X82.389 Y86.915 E0.11225
G1 X84.120 Y84.868 E0.29509
G1 F3600.000 E-2.40000
G1 X112.982 Y112.191 F15000.000
G1 E2.40000 F3600.000
G1 X111.352 Y113.722 E0.24624 F1350.000
G1 X109.543 Y115.037 E0.24624
G1 X107.583 Y116.114 E0.24624
G1 X105.503 Y116.938 E0.24624
G1 X103.337 Y117.494 E0.24624
G1 X101.118 Y117.774 E0.24624
G1 X98.882 Y117.774 E0.24624
G1 X96.663 Y117.494 E0.24624
G1 X94.497 Y116.938 E0.24624
G1 X92.417 Y116.114 E0.24624
G1 X90.457 Y115.037 E0.24624
G1 X88.648 Y113.722 E0.24624
G1 X87.018 Y112.191 E0.24624
G1 X85.927 Y110.873 E0.18836
G1 X85.592 Y110.468 E0.05788
G1 X84.394 Y108.580 E0.24624
G1 X83.441 Y106.556 E0.24624
G1 X82.750 Y104.429 E0.24624
G1 X82.331 Y102.232 E0.24624
G1 X82.191 Y100.000 E0.24624
G1 X82.331 Y97.768 E0.24624
G1 X82.750 Y95.571 E0.24624
G1 X83.441 Y93.444 E0.24624
G1 X84.394 Y91.420 E0.24624
G1 X85.592 Y89.532 E0.24624
G1 X87.018 Y87.809 E0.24625
G1 X88.648 Y86.278 E0.24624
G1 X90.457 Y84.963 E0.24624
G1 X92.417 Y83.886 E0.24624
G1 X94.008 Y83.256 E0.18836
G1 X94.497 Y83.062 E0.05788
G1 X96.663 Y82.506 E0.24624
G1 X98.882 Y82.226 E0.24624
G1 X101.118 Y82.226 E0.24624
G1 X103.337 Y82.506 E0.24624
G1 X105.503 Y83.062 E0.24624
G1 X107.583 Y83.886 E0.24624
G1 X109.543 Y84.963 E0.24624
G1 X111.352 Y86.278 E0.24624
G1 X112.982 Y87.809 E0.24624
G1 X114.073 Y89.127 E0.18836
G1 X114.408 Y89.532 E0.05788
G1 X115.606 Y91.420 E0.24624
G1 X116.559 Y93.444 E0.24624
G1 X117.250 Y95.571 E0.24624
G1 X117.669 Y97.768 E0.24624
G1 X117.809 Y100.000 E0.24624
G1 X117.702 Y101.707 E0.18836
G1 X117.669 Y102.232 E0.05788
G1 X117.250 Y104.429 E0.24624
G1 X116.559 Y106.556 E0.24624
G1 X115.606 Y108.580 E0.24624
G1 X114.408 Y110.468 E0.24624
G1 X113.030 Y112.134 E0.23799
G1 X112.498 Y112.067 F15000.000
G1 X112.445 Y111.687 F15000.000
G1 X110.882 Y113.154 E0.23604 F1350.000
G1 X109.148 Y114.415 E0.23605
G1 X107.269 Y115.447 E0.23605
G1 X105.276 Y116.237 E0.23605
G1 X103.199 Y116.770 E0.23605
G1 X101.072 Y117.039 E0.23605
G1 X98.928 Y117.039 E0.23605
G1 X96.801 Y116.770 E0.23605
G1 X94.724 Y116.237 E0.23605
G1 X92.731 Y115.447 E0.23605
G1 X90.852 Y114.415 E0.23605
G1 X89.118 Y113.154 E0.23605
G1 X87.555 Y111.687 E0.23605
G1 X86.494 Y110.404 E0.18327
G1 X86.188 Y110.035 E0.05278
G1 X85.040 Y108.225 E0.23605
G1 X84.127 Y106.285 E0.23605
G1 X83.464 Y104.246 E0.23605
G1 X83.062 Y102.140 E0.23605
G1 X82.928 Y100.000 E0.23605
G1 X83.062 Y97.860 E0.23605
G1 X83.464 Y95.754 E0.23605
G1 X84.127 Y93.715 E0.23605
G1 X85.040 Y91.775 E0.23605
G1 X86.188 Y89.965 E0.23605
G1 X87.555 Y88.313 E0.23606
G1 X89.118 Y86.846 E0.23605
G1 X90.852 Y85.585 E0.23605
G1 X92.731 Y84.553 E0.23606
G1 X94.279 Y83.940 E0.18326
G1 X94.724 Y83.763 E0.05279
G1 X96.801 Y83.230 E0.23605
G1 X98.928 Y82.961 E0.23605
G1 X101.072 Y82.961 E0.23605
G1 X103.199 Y83.230 E0.23605
G1 X105.276 Y83.763 E0.23605
G1 X107.269 Y84.553 E0.23605
G1 X109.148 Y85.585 E0.23605
G1 X110.882 Y86.846 E0.23605
G1 X112.445 Y88.313 E0.23605
G1 X113.506 Y89.596 E0.18326
G1 X113.812 Y89.965 E0.05278
G1 X114.961 Y91.775 E0.23605
G1 X115.873 Y93.715 E0.23605
G1 X116.536 Y95.754 E0.23605
G1 X116.938 Y97.860 E0.23605
G1 X117.072 Y100.000 E0.23605
G1 X116.968 Y101.661 E0.18326
G1 X116.938 Y102.140 E0.05278
G1 X116.536 Y104.246 E0.23605
G1 X115.873 Y106.285 E0.23605
G1 X114.960 Y108.225 E0.23605
G1 X113.812 Y110.035 E0.23605
G1 X112.493 Y111.629 E0.22780
G1 F3600.000 E-2.40000
G1 X94.242 Y115.494 F15000.000
G1 E2.40000 F3600.000
G1 X84.490 Y105.741 E1.51853 F1200.000
G1 X83.978 Y104.167 E0.18221
G1 X95.792 Y115.981 E1.83945
G1 X97.173 Y116.299 E0.15607
G1 X83.720 Y102.846 E2.09479
G1 X83.543 Y101.607 E0.13780
G1 X98.389 Y116.453 E2.31164
G1 X99.524 Y116.525 E0.12518
G1 X83.472 Y100.473 E2.49943
G1 X83.479 Y99.417 E0.11623
G1 X100.587 Y116.525 E2.66380
G1 X101.581 Y116.457 E0.10972
G1 X83.542 Y98.418 E2.80881
G1 X83.659 Y97.472 E0.10487
G1 X102.524 Y116.338 E2.93744
G1 X103.430 Y116.181 E0.10119
G1 X83.829 Y96.580 E3.05193
G1 X84.019 Y95.707 E0.09833
G1 X104.275 Y115.964 E3.15400
G1 X105.120 Y115.746 E0.09608
G1 X84.280 Y94.905 E3.24501
G1 X84.540 Y94.103 E0.09284
G1 X105.882 Y115.445 E3.32296
G1 X106.643 Y115.143 E0.09014
G1 X84.861 Y93.361 E3.39161
G1 X85.201 Y92.639 E0.08792
G1 X107.369 Y114.807 E3.45172
G1 X108.054 Y114.430 E0.08614
G1 X85.551 Y91.927 E3.50386
G1 X85.964 Y91.277 E0.08477
G1 X108.740 Y114.053 E3.54638
G1 X109.369 Y113.619 E0.08411
G1 X86.376 Y90.627 E3.58008
G1 X86.820 Y90.007 E0.08385
G1 X109.984 Y113.172 E3.60690
G1 X110.595 Y112.720 E0.08364
G1 X87.301 Y89.426 E3.62705
G1 X87.782 Y88.844 E0.08309
G1 X111.143 Y112.205 E3.63747
G1 X111.688 Y111.688 E0.08275
G1 X88.312 Y88.312 E3.63986
G1 X88.857 Y87.795 E0.08275
G1 X112.218 Y111.156 E3.63747
G1 X112.699 Y110.574 E0.08309
G1 X89.405 Y87.280 E3.62705
G1 X90.016 Y86.828 E0.08364
G1 X113.180 Y109.993 E3.60691
G1 X113.624 Y109.373 E0.08385
G1 X90.631 Y86.381 E3.58008
G1 X91.260 Y85.947 E0.08411
G1 X114.036 Y108.723 E3.54638
G1 X114.449 Y108.073 E0.08477
G1 X91.946 Y85.570 E3.50386
G1 X92.631 Y85.193 E0.08614
G1 X114.799 Y107.361 E3.45172
G1 X115.139 Y106.639 E0.08792
G1 X93.357 Y84.857 E3.39161
G1 X94.118 Y84.555 E0.09014
G1 X115.460 Y105.897 E3.32296
G1 X115.720 Y105.095 E0.09284
G1 X94.880 Y84.254 E3.24501
G1 X95.725 Y84.036 E0.09608
G1 X115.981 Y104.293 E3.15400
G1 X116.171 Y103.420 E0.09833
G1 X96.570 Y83.819 E3.05193
G1 X97.476 Y83.662 E0.10119
G1 X116.341 Y102.528 E2.93744
G1 X116.458 Y101.582 E0.10487
G1 X98.419 Y83.543 E2.80881
G1 X99.413 Y83.475 E0.10972
G1 X116.521 Y100.583 E2.66380
G1 X116.528 Y99.527 E0.11623
G1 X100.476 Y83.475 E2.49943
G1 X101.611 Y83.547 E0.12518
G1 X116.457 Y98.393 E2.31164
G1 X116.280 Y97.154 E0.13780
G1 X102.827 Y83.701 E2.09479
G1 X104.208 Y84.019 E0.15607
G1 X116.022 Y95.833 E1.83945
G1 X115.510 Y94.259 E0.18221
G1 X105.758 Y84.506 E1.51853
G1 F3600.000 E-2.40000
G1 X107.676 Y85.362 F15000.000
G1 E2.40000 F3600.000
G1 X114.663 Y92.349 E1.08793 F1200.000
G1 F3600.000 E-2.40000
G1 X112.206 Y88.829 F15000.000
G1 E2.40000 F3600.000
G1 X111.605 Y88.229 E0.09352 F1200.000
G1 F3600.000 E-2.40000
G1 X85.337 Y107.651 F15000.000
G1 E2.40000 F3600.000
G1 X92.324 Y114.638 E1.08793 F1200.000
G1 F3600.000 E-2.40000
G1 X88.395 Y111.771 F15000.000
G1 E2.40000 F3600.000
G1 X87.794 Y111.171 E0.09351 F1200.000
M104 S185 ; set temperature
G1 F3600.000 E-2.40000
G1 Z0.600 F15000.000
G1 X113.540 Y112.715 F15000.000
G1 E2.40000 F3600.000
G1 X111.840 Y114.312 E0.19041 F2700.000
G1 X110.054 Y115.609 E0.18018
G1 X109.953 Y115.683 E0.01024
G1 X107.909 Y116.807 E0.19042
G1 X105.740 Y117.665 E0.19042
G1 X103.480 Y118.245 E0.19042
G1 X101.166 Y118.538 E0.19042
G1 X98.834 Y118.538 E0.19042
G1 X96.520 Y118.245 E0.19042
G1 X94.260 Y117.665 E0.19042
G1 X92.091 Y116.807 E0.19042
G1 X90.047 Y115.683 E0.19042
G1 X88.160 Y114.312 E0.19042
G1 X86.460 Y112.715 E0.19041
G1 X84.973 Y110.918 E0.19042
G1 X83.723 Y108.948 E0.19042
G1 X82.730 Y106.838 E0.19042
G1 X82.009 Y104.619 E0.19042
G1 X81.572 Y102.328 E0.19042
G1 X81.426 Y100.000 E0.19042
G1 X81.572 Y97.672 E0.19042
G1 X82.009 Y95.381 E0.19042
G1 X82.730 Y93.162 E0.19041
G1 X83.723 Y91.052 E0.19042
G1 X84.906 Y89.188 E0.18017
G1 X84.973 Y89.082 E0.01024
G1 X86.460 Y87.285 E0.19042
G1 X88.160 Y85.688 E0.19042
G1 X89.946 Y84.391 E0.18018
G1 X90.047 Y84.317 E0.01024
G1 X92.091 Y83.193 E0.19042
G1 X94.260 Y82.335 E0.19042
G1 X96.520 Y81.755 E0.19042
G1 X98.834 Y81.462 E0.19042
G1 X101.166 Y81.462 E0.19042
G1 X103.356 Y81.739 E0.18017
G1 X103.480 Y81.755 E0.01024
G1 X105.740 Y82.335 E0.19042
G1 X107.909 Y83.193 E0.19042
G1 X109.843 Y84.257 E0.18017
G1 X109.953 Y84.317 E0.01024
G1 X111.840 Y85.688 E0.19042
G1 X113.540 Y87.285 E0.19041
G1 X114.918 Y88.951 E0.17647
G1 X115.027 Y89.082 E0.01395
G1 X116.277 Y91.052 E0.19042
G1 X117.270 Y93.162 E0.19042
G1 X117.991 Y95.381 E0.19042
G1 X118.428 Y97.672 E0.19042
G1 X118.574 Y100.000 E0.19042
G1 X118.428 Y102.328 E0.19042
G1 X117.991 Y104.619 E0.19042
G1 X117.270 Y106.838 E0.19042
G1 X116.277 Y108.948 E0.19042
G1 X115.027 Y110.918 E0.19042
G1 X113.588 Y112.657 E0.18430
G1 X113.175 Y112.372 F15000.000
G1 X111.520 Y113.926 E0.11323 F2700.000
G1 X109.760 Y115.205 E0.10855
G1 X107.695 Y116.353 E0.11789
G1 X105.585 Y117.189 E0.11323
G1 X103.387 Y117.753 E0.11324
G1 X101.135 Y118.038 E0.11323
G1 X98.865 Y118.038 E0.11323
G1 X96.613 Y117.753 E0.11323
G1 X94.415 Y117.189 E0.11324
G1 X92.305 Y116.353 E0.11324
G1 X90.398 Y115.305 E0.10854
G1 X88.480 Y113.926 E0.11789
G1 X86.825 Y112.372 E0.11323
G1 X85.438 Y110.696 E0.10855
G1 X84.162 Y108.707 E0.11789
G1 X83.196 Y106.653 E0.11323
G1 X82.494 Y104.495 E0.11324
G1 X82.069 Y102.265 E0.11324
G1 X81.927 Y100.000 E0.11323
G1 X82.069 Y97.735 E0.11323
G1 X82.494 Y95.505 E0.11324
G1 X83.196 Y93.347 E0.11323
G1 X84.162 Y91.293 E0.11324
G1 X85.378 Y89.377 E0.11323
G1 X86.765 Y87.700 E0.10855
G1 X88.480 Y86.074 E0.11789
G1 X90.316 Y84.740 E0.11323
G1 X92.305 Y83.647 E0.11324
G1 X94.415 Y82.811 E0.11323
G1 X96.522 Y82.270 E0.10855
G1 X98.865 Y81.962 E0.11789
G1 X101.135 Y81.962 E0.11323
G1 X103.293 Y82.235 E0.10854
G1 X105.585 Y82.811 E0.11789
G1 X107.695 Y83.647 E0.11323
G1 X109.602 Y84.695 E0.10854
G1 X111.520 Y86.074 E0.11789
G1 X113.175 Y87.628 E0.11323
G1 X114.622 Y89.377 E0.11324
G1 X115.838 Y91.293 E0.11324
G1 X116.804 Y93.347 E0.11323
G1 X117.506 Y95.505 E0.11324
G1 X117.931 Y97.735 E0.11323
G1 X118.073 Y100.000 E0.11324
G1 X117.931 Y102.265 E0.11323
G1 X117.506 Y104.495 E0.11324
G1 X116.804 Y106.653 E0.11323
G1 X115.838 Y108.707 E0.11323
G1 X114.622 Y110.623 E0.11323
G1 X113.223 Y112.314 E0.10949
G1 X113.008 Y111.924 F15000.000
G1 X112.408 Y112.524 E0.06762 F2400.000
G1 F3600.000 E-2.40000
G1 X108.190 Y115.609 F15000.000
G1 E2.40000 F3600.000
G1 X115.632 Y108.167 E0.83852 F2400.000
G1 F3600.000 E-2.40000
G1 X116.540 Y106.125 F15000.000
G1 E2.40000 F3600.000
G1 X106.143 Y116.523 E1.17151 F2400.000
G1 X104.490 Y117.043 E0.13809
G1 X117.086 Y104.447 E1.41926
G1 X117.362 Y103.037 E0.11445
G1 X103.016 Y117.383 E1.61642
G1 X101.719 Y117.547 E0.10417
G1 X117.551 Y101.715 E1.78382
G1 X117.627 Y100.506 E0.09655
G1 X100.509 Y117.624 E1.92878
G1 X99.376 Y117.624 E0.09029
G1 X117.620 Y99.380 E2.05566
G1 X117.552 Y98.314 E0.08512
G1 X98.315 Y117.551 E2.16760
G1 X97.309 Y117.424 E0.08080
G1 X117.427 Y97.305 E2.26689
G1 X117.246 Y96.354 E0.07720
G1 X96.343 Y117.256 E2.35526
G1 X95.441 Y117.025 E0.07418
G1 X117.043 Y95.423 E2.43405
G1 X116.766 Y94.567 E0.07166
G1 X94.540 Y116.793 E2.50430
G1 X93.728 Y116.472 E0.06957
G1 X116.488 Y93.712 E2.56446
G1 X116.146 Y92.920 E0.06870
G1 X92.916 Y116.150 E2.61745
G1 X92.142 Y115.791 E0.06801
G1 X115.783 Y92.150 E2.66385
G1 X115.409 Y91.390 E0.06743
G1 X91.410 Y115.389 E2.70410
G1 X90.679 Y114.987 E0.06649
G1 X114.969 Y90.697 E2.73692
G1 X114.529 Y90.004 E0.06542
G1 X90.008 Y114.525 E2.76293
G1 X89.352 Y114.048 E0.06464
G1 X114.057 Y89.343 E2.78363
G1 X113.544 Y88.723 E0.06413
G1 X88.701 Y113.566 E2.79918
G1 X88.116 Y113.017 E0.06388
G1 X113.031 Y88.103 E2.80722
G1 X112.466 Y87.534 E0.06385
G1 X87.534 Y112.466 E2.80929
G1 X86.970 Y111.897 E0.06385
G1 X111.884 Y86.983 E2.80722
G1 X111.299 Y86.434 E0.06388
G1 X86.456 Y111.277 E2.79918
G1 X85.943 Y110.657 E0.06413
G1 X110.648 Y85.952 E2.78363
G1 X109.992 Y85.475 E0.06464
G1 X85.477 Y109.990 E2.76221
G1 X85.034 Y109.299 E0.06535
G1 X109.321 Y85.013 E2.73653
G1 X108.590 Y84.611 E0.06649
G1 X84.591 Y108.609 E2.70404
G1 X84.217 Y107.850 E0.06741
G1 X107.858 Y84.209 E2.66385
G1 X107.084 Y83.850 E0.06801
G1 X83.854 Y107.080 E2.61745
G1 X83.512 Y106.288 E0.06870
G1 X106.272 Y83.528 E2.56446
G1 X105.460 Y83.207 E0.06957
G1 X83.234 Y105.433 E2.50430
G1 X82.957 Y104.577 E0.07166
G1 X104.555 Y82.979 E2.43361
G1 X103.649 Y82.751 E0.07440
G1 X82.754 Y103.646 E2.35439
G1 X82.573 Y102.695 E0.07720
G1 X102.691 Y82.576 E2.26689
G1 X101.685 Y82.449 E0.08080
G1 X82.448 Y101.686 E2.16760
G1 X82.380 Y100.620 E0.08512
G1 X100.624 Y82.376 E2.05566
G1 X99.491 Y82.376 E0.09029
G1 X82.373 Y99.494 E1.92878
G1 X82.449 Y98.285 E0.09655
G1 X98.281 Y82.453 E1.78382
G1 X96.984 Y82.617 E0.10417
G1 X82.638 Y96.963 E1.61642
G1 X82.914 Y95.553 E0.11445
G1 X95.510 Y82.957 E1.41926
G1 X93.857 Y83.478 E0.13809
G1 X83.460 Y93.875 E1.17151
G1 F3600.000 E-2.40000
G1 X84.368 Y91.833 F15000.000
G1 E2.40000 F3600.000
G1 X91.810 Y84.391 E0.83852 F2400.000
G1 F3600.000 E-2.40000
G1 X87.592 Y87.476 F15000.000
G1 E2.40000 F3600.000
G1 X86.992 Y88.076 E0.06762 F2400.000
G1 F3600.000 E-2.40000
G1 Z0.840 F15000.000
G1 X113.774 Y112.935 F15000.000
G1 E2.40000 F3600.000
G1 X112.044 Y114.559 E0.11838 F2105.768
G1 X110.125 Y115.954 E0.11839
G1 X108.045 Y117.097 E0.11839
G1 X105.839 Y117.971 E0.11839
G1 X103.541 Y118.561 E0.11839
G1 X101.186 Y118.858 E0.11839
G1 X98.814 Y118.858 E0.11839
G1 X96.459 Y118.561 E0.11839
G1 X94.161 Y117.971 E0.11839
G1 X91.955 Y117.097 E0.11838
G1 X89.875 Y115.954 E0.11839
G1 X87.956 Y114.559 E0.11839
G1 X86.226 Y112.935 E0.11838
G1 X84.713 Y111.107 E0.11839
G1 X83.442 Y109.103 E0.11839
G1 X82.431 Y106.956 E0.11839
G1 X81.698 Y104.699 E0.11839
G1 X81.253 Y102.368 E0.11839
G1 X81.104 Y100.000 E0.11839
G1 X81.253 Y97.632 E0.11839
G1 X81.644 Y95.582 E0.10411
G1 X81.698 Y95.301 E0.01428
G1 X82.431 Y93.044 E0.11839
G1 X83.442 Y90.897 E0.11839
G1 X84.713 Y88.893 E0.11839
G1 X86.226 Y87.065 E0.11839
G1 X87.956 Y85.441 E0.11838
G1 X89.875 Y84.046 E0.11839
G1 X91.955 Y82.903 E0.11839
